X:1
T:Out of the deep
T:Thomas Tomkins (1572-1656)
T:ed. Ross Jallo
T:Psalm 130:1-2
T:OUT OF THE DEEP à 3
T:from Musica Deo sacra (London, 1668)
C:Thomas Tomkins
%%score [ 1 2 3 ]
L:1/8
Q:1/4=72
M:4/4
K:Bmin
V:1 treble nm="MEDIUS Alto"
V:2 treble-8 nm="TENOR Tenor"
V:3 bass nm="BASSUS Bass"
V:1
 z8 | z8 | z8 | z8 | z4 B,2 B,2- | B,2 ^A,2 B,2 CC | D2 B,B, C2 ^D2 | E4 !courtesy!=DD E2- | %8
w: ||||Out of|_ the deep have *|call'd un- to thee, O|Lord, have * call'd|
 EDCB, C4 | B,4 z4 | z2 G2 E2 F2 | DE F>F E4 | z2 B2 G2 A2 | FGAB ^G4 | z2 d2 B2 c2 | ^AF B4 A2 | %16
w: _ un- to thee, O|Lord:|Lord, hear my|voice, Lord, hear my voice,|Lord, hear my|voice, Lord, hear my voice,|Lord, hear my|voice, Lord, hear my|
 B8 | z4 z2 C2 | F2 A2 ^G3 F | E3 F DE F2- | F2 (ED) C2 F2 | A2 d2 c3 B | A>(B ^G2) F2 B,2 | %23
w: voice.|O|let thine ears con-|si- der well, con- si-|* der _ well, O|let thine ears con-|si- der _ well the|
 F3 C F3 (E/D/) | C4 z2 C2 | D4 B,2 E2- | E2 C2 E4 | z2 E2 F4 | D2 F4 G2 | F3 F ^G4 | E2 A4 ^G2 | %31
w: voice of my com- *|plaint, the|voice of my|_ com- plaint,|the voice|of my com-|plaint, the voice|of my com-|
 A3 (!courtesy!=G/F/) ED E2 | z2 F2 ^G4 | ^A2 B4 A2 | B3 (!courtesy!=A/!courtesy!=G/) F4 | %35
w: plaint, of _ my com- plaint,|the voice|of my com-|plaint, of _ my|
 G2 F3 B, E2- | E2 D2 C3 C | !fermata!^D8 |] %38
w: com- plaint, the voice|_ of my com-|plaint.|
V:2
 z8 | F2 F4 E2 | F2 ^GG A2 FF | ^G2 ^A2 B2 =GG | F3 F G3 (F | E4) D2 E2 | F2 ^GG A2 FF | %7
w: |Out of the|deep have * call'd un- to|thee, O Lord, un- to|thee, O Lord, out|_ of the|deep have * call'd un- to|
 !courtesy!=G2 A2 B4 | ^A2 B4 A2 | B3 B c3 c | B2 B B2 (^A/^G/ A2) | Bc d4 c2 | d2 B d2 (c/B/ c2) | %13
w: thee, O Lord,|to thee, O|Lord: Lord, hear my|voice, Lord, hear my _ _|voice, Lord, hear my|voice, Lord, hear my _ _|
 de f4 ^e2 | f3 !courtesy!=e dB e2- | e2 (d2 c4) | ^d2 B2 =d2 g2 | f3 e d>(e c2) | B>(c A2) B3 A | %19
w: voice, Lord, hear my|voice, Lord, hear my voice,|_ my _|voice. O let thine|ears con- si- der _|well the _ voice of|
 ^G2 c2 Bc d2- | d2 (cB) ^A3 B | c2 F2 !courtesy!=A2 d2 | c3 B A2 e2 | d2 c c2 (B/A/) B2- | %24
w: my com- plaint, the voice|_ of _ my com-|plaint, O let thine|ears con- si- der|well the voice of _ my|
 B2 (^A^G) A4 | z8 | z4 z2 B2 | c4 A2 d2- | d2 c2 ^dB e2- | e2 ^d2 e2 B2 | c4 F2 c2- | c2 (d4 c2) | %32
w: _ com- * plaint,||the|voice of my|_ com- plaint, of my|_ com- plaint, the|voice of my|_ com- *|
 d3 d cB e2- | e2 d2 c2 cf- | f(e/d/) e4 d2 | c3 c d2 c2- | cB (B4 ^A2) | !fermata!B8 |] %38
w: plaint, the voice of my|_ com- plaint, the voice|_ of _ my com-|plaint, the voice of|_ my com- *|plaint.|
V:3
 z4 B,,2 B,,2- | B,,2 ^A,,2 B,,2 C,C, | D,2 B,,B,, C,2 ^D,2 | E,2 C,2 B,,2 E,2- | %4
w: Out of|_ the deep have *|call'd un- to thee, O|Lord, un- to thee,|
 E,2 ^D,2 E,3 (=D, | C,4) B,,4- | B,,4 F,3 F, | E,2 F,F, G,3 G, | F,8 | z2 G,2 E,2 F,2 | %10
w: _ O Lord, O|_ Lord,|_ have *|call'd un- to thee, O|Lord:|Lord, hear my|
 ^D,2 E,2 C,2 F,2 | B,,2 z B, G,2 A,2 | F,2 G,2 E,2 A,2 | D,3 D B,2 C2 | ^A,A, B,4 E,2 | %15
w: voice, Lord, hear my|voice, Lord, hear my|voice, Lord, hear my|voice, Lord, hear my|voice, Lord, hear my|
 F,3 (E,/D,/) E,(C, F,2) | B,,4 z2 B,,2 | D,2 G,2 F,3 E, | D,>(E, C,2) B,,2 B,,2 | %19
w: voice, Lord, _ hear my _|voice. O|let thine ears con-|si- der _ well the|
 C,2 ^A,,2 B,,3 (C, | D,2 E,2) F,4- | F,4 F,2 F,2- | F,2 ^E,2 F,2 G,2 | F,3 E, D,3 E, | F,8 | %25
w: voice of my com-|* * plaint,|_ con- si-|* der well the|voice of my com-|plaint,|
 z2 F,2 G,4 | E,2 A,4 ^G,2 | A,4 F,2 B,2- | B,2 ^A,2 B,4 | z2 B,,2 E,4 | C,2 F,4 ^E,2 | %31
w: the voice|of my com-|plaint, of my|_ com- plaint,|the voice|of my com-|
 F,3 !courtesy!=G, A,3 G, | F,(E, D,2) E,3 D, | C,2 D,2 E,2 F,2 | ^G,4 ^A,2 B,2- | %35
w: plaint, the voice of|my com- * plaint, the|voice of my com-|plaint, of my|
 B,2 ^A,2 B,2 E,2 | F,4 F,4 | !fermata!B,,8 |] %38
w: _ com- plaint, of|my com-|plaint.|

